X: 1
T: Gori More    [Am]
O: Serbia
F: http://www.youtube.com/watch?v=ECgs5odksl0
F: http://www.youtube.com/watch?v=ribwGQ7-ZnA
F: https://www.youtube.com/watch?v=Y65yxjj-BRQ
F: https://www.youtube.com/watch?v=g7slxnRluLs
Z: Seymour Schlien
M: 2/4
L: 1/8
%Q: 1/4=144
K: Am
% - - - - - - - - - -
"C"|:\
   "Am"ABcB | cBA2 | "G"BAGA | "Am"AA3 |
w: Go - ri* mo - re to-pe se pla-ni-ne
y  "Am"ABcB | cBA2 | "G"BAGA | "Am"AA3 :|
w: od le-po-te tvo - je i tvo-je bli-zi-ne.
% - - - - - - - - - -
"I"|:\
   "Am"ABcB | cBA2 | "G"BAGA | "Am"AAA2 |\
   "Am"ABcB | cBA2 | "G"BAG2 | "Am"AA!fine!A2 :: "(drums)"z4 :|
% - - - - - - - - - -
"V"|:\
   "Am"Aeed | e(dc2) | "G"dcBG | "Am"AA3 |
w:1.~Ne-bo nek' nas ve-*\vze ve\vc-nim lanc-em sre-\'ce.
w:2.~No-si-\'ce nas ve-*ruj za-u-vek na du-\vsi
w:3.~Iz lju-ba-vi o-ve* ro-di-\'ce se du-ga
% - - - - - - - - - -
y  "Am"Aeed | edc2 | "G"dcBG | "Am"AA3 :|
w:   nek' ne bu-de ni-*kad ka-ko sr-ce ne-\'ce.
w:   o-naj ko po-\vze-li* lju-bav da nam sru-\vsi.
w:   da o-ba-sja re-*dom i sva sr-ca dru-ga.
% - - - - - - - - - -
%W:Chorus
%W:  Gori more tope se planine
%W:  od lepote tvoje i tvoje blizine.
%W:
%W:1. Nebo nek' nas ve\vze ve\vcnim lancem sre\'ce.
%W:  nek' ne bude nikad kako srce ne\'ce.
%W:
%W:2. Nosi\'ce nas veruj zauvek na du\vsi
%W:  onaj ko po\vzeli ljubav da nam sru\vsi.
%W:
%W:3. Iz ljubavi ove rodi\'ce se duga
%W:  da obasja redom i sva srca druga.
%W:
W:The sea is on fire, mountains are melting from your beauty and your closeness.
W:May the sky tie us with eternal chain of happiness may it never be the way that heart doesn't want it.
W:Believe me, anyone who tries to tear down our love will forever carry us on their soul.
W:Out of love a rainbow will be born to light up all other hearts, one by one, as well.
